public/flags/BY.svg

<svg fill="none" height="53" viewBox="0 0 64 53" width="64" xmlns="http://www.w3.org/2000/svg" xmlns:xlink="http://www.w3.org/1999/xlink"><mask id="a" height="43" maskUnits="userSpaceOnUse" width="59" x="5" y="3"><rect fill="#fff" height="42.5" rx="4.24286" width="59" x="5" y="3"/></mask><rect fill="#fff" height="42.5" rx="4.24286" width="59" x="5" y="3"/><g clip-rule="evenodd" fill-rule="evenodd" mask="url(#a)"><path d="m5 31.3333h59v-28.3333h-59z" fill="#e54252"/><path d="m5 45.5h59v-14.1667h-59z" fill="#5cbe6b"/><path d="m5 3h8.4286v6.37509l-1.4047 2.12491 1.4047 2.1249v4.2502l-1.4047 2.1249 1.4047 2.1249v4.2502l-1.4047 2.1249 1.4047 2.1249v4.2502l-1.4047 2.1249 1.4047 2.1249v6.3751h-8.4286z" fill="#fff"/><g fill="#e54252"><path d="m3.59518 7.25-2.809527 4.25 2.809527 4.25-2.809535 4.25 2.809525 4.25 2.80952-4.25-2.80951-4.25 2.80952-4.25zm-2.809535 21.25 2.809525-4.25 2.80952 4.25-2.80952 4.25zm2.809525 4.25 2.80952 4.25-2.80952 4.25-2.809525-4.25z"/><path d="m6.40479 7.25 2.80952-4.25 2.80949 4.25-2.80949 4.25zm.00002 8.5 2.80952-4.25 2.80957 4.25-2.80957 4.25zm2.80952 4.25 2.80957 4.25-2.80957 4.25-2.80952-4.25zm-2.80952 12.75 2.80952-4.25 2.80957 4.25-2.80957 4.25zm2.80952 4.25 2.80957 4.25-2.80957 4.25-2.80952-4.25z"/></g></g></svg>

<svg width="64" height="53" viewBox="0 0 64 53" fill="none" xmlns="http://www.w3.org/2000/svg">
<rect x="5" y="3" width="59" height="42.5" rx="4.24286" fill="white"/>
<mask id="mask0" mask-type="alpha" maskUnits="userSpaceOnUse" x="5" y="3" width="59" height="43">
<rect x="5" y="3" width="59" height="42.5" rx="4.24286" fill="white"/>
</mask>
<g mask="url(#mask0)">
<path fill-rule="evenodd" clip-rule="evenodd" d="M5 31.3333H64V3H5V31.3333Z" fill="#E54252"/>
<path fill-rule="evenodd" clip-rule="evenodd" d="M5 45.5H64V31.3333H5V45.5Z" fill="#5CBE6B"/>
<path fill-rule="evenodd" clip-rule="evenodd" d="M5 3H13.4286V9.37509L12.0239 11.5L13.4286 13.6249V17.8751L12.0239 20L13.4286 22.1249V26.3751L12.0239 28.5L13.4286 30.6249V34.8751L12.0239 37L13.4286 39.1249V45.5H5V3Z" fill="white"/>
<path fill-rule="evenodd" clip-rule="evenodd" d="M3.59518 7.25L0.785653 11.5L3.59518 15.75L0.785645 20L3.59517 24.25L6.40469 20L3.59518 15.75L6.4047 11.5L3.59518 7.25ZM0.785645 28.5L3.59517 24.25L6.40469 28.5L3.59517 32.75L0.785645 28.5ZM3.59517 32.75L6.40469 37L3.59517 41.25L0.785645 37L3.59517 32.75Z" fill="#E54252"/>
<path fill-rule="evenodd" clip-rule="evenodd" d="M6.40479 7.25L9.21431 3L12.0238 7.25L9.21431 11.5L6.40479 7.25ZM6.40481 15.75L9.21433 11.5L12.0239 15.75L9.21433 20L6.40481 15.75ZM9.21433 20L12.0239 24.25L9.21433 28.5L6.40481 24.25L9.21433 20ZM6.40481 32.75L9.21433 28.5L12.0239 32.75L9.21433 37L6.40481 32.75ZM9.21433 37L12.0239 41.25L9.21433 45.5L6.40481 41.25L9.21433 37Z" fill="#E54252"/>
</g>
</svg>
